X:13957
T:Rambling Pitchfork, The
S:FJ
R:Jig
O:Ireland
M:6/8
K:D
E|\
~F3 AFF|dFF AFD|G~FG ABc|ded cAG|\
F3 ~AFF|dFF AFD|~G3 BGB|1 AFD D2 :|2 AFD D|*
|:FA|\
d2e fdf|ecA AFA|dcd efg|f/g/af {a}gfe|\
d2e fdf|ecA AGF|G3 BGB|1 AFD D:|2 D2|*
